X: 10351
M: 6/8
L: 1/8
K: D
|:\
|: g |\
(f/g/a).f d2f | (e/f/g).e c2e | (f/g/a).f d2f | edc d2g |\
(f/g/a).f d2f | (e/f/g).e c2e | d2f a2f | gec d2 :|


